X: 25808
T: Mason's Apron, The
R: reel
M: 4/4
K: Amajor
|:aA (3AAA cBAF|EFAB cABc|dB (3BBB BcBA|GABc defg|
aA (3AAA cBAF|EFAB cABc|dcde fgaf|ecBc A4:|
|:c2ec fcec|c2ec fcec|d2fd gdfd|d2fd gdfd|
c2ec fcec|c2ec fcec|dcde fgaf|ecBc A4:|
|:ae (3eee aefg|a2ga fece|bf (3fff bfga|b2ag fefg|
ae (3eee aefg|a2ga fece|dcde fgaf|ecBc A4:|
|:c2Ac eAce|AceA ceAc|d2Ad fAdf|AdfA dfAB|
c2Ac eAce|AceA ceAc|dcde fgaf|ecBc A4:|

